X: 1
T: Knit the Pocky
T: 8 x 32R 2C (RSCDS Bk 11)
P: Knit the Pocky
C: Bremner Colln via RSCDS, arr. T. Traub 8-25-2004
R: Reel
K: Dm
M: 4/4
L: 1/8
|: A|"Dm"Ddd^c defd|"C"cBAG FGEC|"Dm"Ddd^c defg|"A"ed^ce d2 d :|
|: a|"Dm"defg afdg|"C"edcg ecge|"Dm"defg afdg|"C"ecge d2 d :|
